X:1
T:Aura Lee
T:Arr: Kenneth S. Clark
%%score [ 1 2 3 4 ]
L:1/8
Q:1/4=70
M:4/4
K:A
V:1 treble nm="Soprano"
V:2 treble nm="Alto"
V:3 treble-8 nm="Tenor"
V:4 bass nm="Bass"
V:1
 E2 A2 G2 A2 | B2 F2 B4 | A3 G F2 G2 | (A4 E4) | E2 A2 G2 A2 | B2 F2 B4 | A2 G2 F2 G2 | A8 | %8
w: As the black- bird|in the Spring,|'Neath the wil- low|tree, _|Sat and piped I|heard him sing,|Sing- ing "Au- ra|Lee":|
 G3 G G4 | A3 A A4 | c3 B A2 B2 | c6 z2 | c2 c2 d2 c2 | B3 F B3 A | G2 G2 c3 B | A8 |] %16
w: Au- ra Lee,|Au- ra Lee,|Maid of gold- en|hair!|Sun- shine came a-|long with thee, And|swal- lows in the|air.|
V:2
 C2 C2 C2 C2 | D2 D2 D4 | D3 D D2 D2 | (C4 D4) | C2 C2 =C2 ^C2 | D2 E2 ^D4 | =D2 D2 ^D2 =D2 | %7
w: .As the black- bird|in the Spring,|'Neath the wil- low|tree, _|Sat and piped I|heard him sing,|Sing- ing "Au- ra|
 (D4 C4) | ^E3 E E4 | F3 F F4 | F3 F F2 F2 | ^E6 z2 | =E2 E2 F2 E2 | ^D3 D D3 D | =D2 D2 E3 D | %15
w: Lee": _|Au- ra Lee,|Au- ra Lee,|Maid of gold- en|hair!|Sun- shine came a-|long with thee, And|swal- lows in the|
 C8 |] %16
w: air.|
V:3
 A2 E2 E2 E2 | F2 A2 F4 | B2 B2 A2 B2 | (E2 F2 G2 E2) | A2 E2 ^D2 E2 | F2 ^A2 (=A2 F2) | %6
w: As the black- bird|in the Spring,|'Neath the wil- low|tree, _ _ _|Sat and piped I|heard him sing, _|
 B2 B2 A2 B2 | (F4 E4) | B3 B B4 | c3 c c4 | A3 B (cB) A2 | G6 z2 | A2 A2 ^A2 A2 | F3 =A F3 B | %14
w: Sing- ing "Au- ra|Lee": _|Au- ra Lee,|Au- ra Lee,|Maid of gold- * en|hair!|Sun- shine came a-|long with thee, And|
 B2 B2 (G F2) E | E8 |] %16
w: swal- lows in _ the|air.|
V:4
 A,,2 A,,2 A,,2 A,,2 | B,,2 B,,2 B,,4 | E,2 E,2 B,,2 E,2 | (A,,4 B,,4) | A,,2 A,,2 A,,2 A,,2 | %5
w: As the black- bird|in the Spring,|'Neath the wil- low|tree, _|Sat and piped I|
 D,2 C,2 B,,4 | E,2 E,2 B,,2 E,2 | A,,8 | C,3 C, C,4 | F,3 F, F,4 | D,3 D, D,2 D,2 | C,6 z2 | %12
w: heard him sing,|Sing- ing "Au- ra|Lee":|Au- ra Lee,|Au- ra Lee,|Maid of gold- en|hair!|
 A,,2 E,2 F,2 F,2 | B,,3 B,, B,,3 =F, | E,2 E,2 E,3 E, | A,,8 |] %16
w: Sun- shine came a-|long with thee, And|swal- lows in the|air.|

